www/img/mcc-icons/airplane.svg

<?xml version="1.0" encoding="UTF-8" standalone="no"?>
<svg width="45px" height="49px" viewBox="0 0 45 49" version="1.1" xmlns="http://www.w3.org/2000/svg" xmlns:xlink="http://www.w3.org/1999/xlink">
    <!-- Generator: Sketch 3.7.2 (28276) - http://www.bohemiancoding.com/sketch -->
    <title>airplane</title>
    <desc>Created with Sketch.</desc>
    <defs></defs>
    <g id="Page-1" stroke="none" stroke-width="1" fill="none" fill-rule="evenodd">
        <g id="Transaction-icons" transform="translate(-139.000000, -130.000000)" stroke="#FFFFFF" stroke-width="0.7" fill="#9B9BAB">
            <g id="airplane" transform="translate(140.000000, 131.000000)">
                <path d="M30.2241211,43.1445312 L30.2241211,44.7509766 L22.237793,40.390625 L22.2148438,40.390625 C22.1000977,40.3217773 21.9624023,40.2758789 21.824707,40.2758789 C21.6870117,40.2758789 21.5493164,40.3217773 21.4345703,40.390625 L21.4116211,40.390625 L13.425293,44.7509766 L13.425293,43.1445312 L18.2216797,38.3481445 C18.3823242,38.2104492 18.4741211,38.0039062 18.4741211,37.7744141 L18.4741211,26.0244141 C18.4741211,25.5424805 18.0839844,25.175293 17.625,25.175293 C17.5102539,25.175293 17.418457,25.1982422 17.3266602,25.2441406 L1.67529297,31.4863281 L1.67529297,29.8110352 L18.1069336,18.3134766 L18.1069336,18.2905273 C18.3134766,18.152832 18.4741211,17.9003906 18.4741211,17.625 L18.4741211,5.02587891 C18.4741211,3.18994141 19.9658203,1.67529297 21.824707,1.67529297 C23.6835938,1.67529297 25.175293,3.18994141 25.175293,5.02587891 L25.175293,17.625 C25.175293,17.9003906 25.3359375,18.152832 25.5424805,18.2905273 L25.5424805,18.3134766 L41.9741211,29.8110352 L41.9741211,31.4863281 L26.3227539,25.2441406 C26.230957,25.1982422 26.1391602,25.175293 26.0244141,25.175293 C25.5654297,25.175293 25.175293,25.5424805 25.175293,26.0244141 L25.175293,37.7744141 C25.175293,38.0039062 25.2670898,38.2104492 25.4277344,38.3481445 L30.2241211,43.1445312 Z M31.8994141,46.1508789 L31.8994141,42.800293 C31.8994141,42.5708008 31.8076172,42.3642578 31.6469727,42.2036133 L26.8505859,37.4072266 L26.8505859,27.2636719 L42.4790039,33.5058594 L42.5019531,33.5058594 C42.59375,33.5517578 42.6855469,33.574707 42.800293,33.574707 C43.2592773,33.574707 43.6494141,33.1845703 43.6494141,32.7255859 L43.6494141,29.375 C43.6494141,29.0766602 43.4887695,28.847168 43.2822266,28.6865234 L26.8505859,17.1889648 L26.8505859,5.02587891 C26.8505859,2.24902344 24.6015625,0 21.824707,0 C19.0478516,0 16.7988281,2.24902344 16.7988281,5.02587891 L16.7988281,17.1889648 L0.3671875,28.6865234 C0.160644531,28.847168 0,29.0766602 0,29.375 L0,32.7255859 C0,33.1845703 0.390136719,33.574707 0.849121094,33.574707 C0.963867188,33.574707 1.05566406,33.5517578 1.14746094,33.5058594 L1.17041016,33.5058594 L16.7988281,27.2636719 L16.7988281,37.4072266 L12.0024414,42.2036133 C11.8417969,42.3642578 11.75,42.5708008 11.75,42.800293 L11.75,46.1508789 C11.75,46.6328125 12.1401367,47 12.5991211,47 C12.7368164,47 12.8745117,46.9541016 12.9892578,46.8852539 L21.824707,42.0888672 L30.6601562,46.8852539 C30.7749023,46.9541016 30.9125977,47 31.050293,47 C31.5092773,47 31.8994141,46.6328125 31.8994141,46.1508789 L31.8994141,46.1508789 Z" id="plane"></path>
            </g>
        </g>
    </g>
</svg>

<svg width="46" height="49" viewBox="0 0 46 49" xmlns="http://www.w3.org/2000/svg"><g class="nc-icon-wrapper" fill="#444444"><title>airplane</title><path d="M31.9 46.15V42.8a.833.833 0 0 0-.253-.596l-4.796-4.797V27.264l15.628 6.242h.023a.635.635 0 0 0 .298.069c.46 0 .85-.39.85-.85v-3.35c0-.298-.161-.528-.368-.688L26.851 17.189V5.026A5.024 5.024 0 0 0 21.825 0a5.024 5.024 0 0 0-5.026 5.026v12.163L.367 28.687c-.206.16-.367.39-.367.688v3.35c0 .46.39.85.85.85a.635.635 0 0 0 .297-.07h.023L16.8 27.265v10.143l-4.797 4.797a.833.833 0 0 0-.252.596v3.35c0 .483.39.85.85.85a.774.774 0 0 0 .39-.115l8.835-4.796 8.835 4.796a.774.774 0 0 0 .39.115c.46 0 .85-.367.85-.85z" transform="translate(1 1)" stroke="#444444" stroke-width=".8" fill-rule="nonzero" fill="none"></path></g></svg>
